packages/core/src/Assets/SvgComponents/header/deriv-logo.svg

<svg width="302" height="28" viewBox="0 0 302 28" fill="none" xmlns="http://www.w3.org/2000/svg">
<g clip-path="url(#clip0)">
<path d="M6.73168 0.5L6.72514 0.530273L17.0837 13.9967L0.506545 27.4648L0.5 27.4939H17.2461C19.6194 27.4943 21.9227 26.6903 23.7801 25.2131C25.6376 23.7359 26.9395 21.6727 27.4734 19.3603L28.8598 13.3545C29.215 11.816 29.2184 10.2173 28.8698 8.67733C28.5213 7.13739 27.8297 5.69595 26.8467 4.4604C25.8637 3.22485 24.6145 2.22705 23.1923 1.54134C21.7701 0.855623 20.2114 0.499671 18.6325 0.5H6.73168Z" fill="url(#paint0_linear)"/>
<path d="M17.076 14.0234L9.79536 27.4932H0.5L17.076 14.0234Z" fill="#CC2F3E"/>
<path fill-rule="evenodd" clip-rule="evenodd" d="M42.1666 0.5H52.6945C61.1783 0.5 66.0129 6.323 64.6735 13.9182L64.6596 13.9951C63.3203 21.5919 56.4185 27.4922 47.9348 27.4922H37.4072L42.1666 0.5ZM48.8798 22.1335C51.1776 22.1709 53.4112 21.3755 55.1681 19.8941C56.925 18.4127 58.0864 16.3455 58.4378 14.0745L58.4513 13.9971C59.2944 9.21364 56.6079 5.85909 51.7491 5.85909H47.1604L44.291 22.1323L48.8798 22.1335Z" fill="white"/>
<path d="M72.4921 0.5H93.046L92.1145 5.783H77.4609L76.495 11.2591H85.828L84.8953 16.5421H75.5635L74.5641 22.2109H89.2177L88.2862 27.4939H67.7323L72.4921 0.5Z" fill="white"/>
<path d="M119.465 9.48527C118.697 13.8441 115.862 16.5805 112.205 17.8532L117.1 27.4926H110.158L103.697 13.6101H108.172C111.063 13.6101 112.994 12.0675 113.395 9.7925L113.409 9.71518C113.858 7.17023 112.315 5.85909 109.423 5.85909H103.522L99.7081 27.4939H93.7693L98.5291 0.5H110.869C114.301 0.5 116.792 1.46423 118.252 3.23805C119.492 4.74186 119.929 6.863 119.479 9.40795L119.465 9.48527Z" fill="white"/>
<path d="M126.518 0.5H132.457L127.697 27.4939H121.758L126.518 0.5Z" fill="white"/>
<path d="M143.768 0.5H137.259L143.334 27.4939H148.541L164.136 0.5H157.78L147.445 19.3767L143.768 0.5Z" fill="white"/>
</g>
<rect x="172.136" y="0.5" width="1" height="27" fill="white"/>
<path d="M189.005 11.2701L193.243 9.77785L192.939 8.94636C192.597 7.97705 192.049 7.2438 191.295 6.74611C190.541 6.24876 189.619 6 188.529 6C186.477 6 184.792 6.83917 183.474 8.51834C182.321 9.98283 181.586 11.8698 181.269 14.1798C181.218 14.5208 181.184 14.8393 181.165 15.1361C181.146 15.433 181.136 15.7073 181.136 15.9594C181.136 17.7019 181.485 19.0902 182.182 20.1254C183.018 21.3752 184.317 22 186.078 22C188.041 22 189.625 21.2038 190.829 19.6111C191.843 18.2718 192.521 16.4899 192.863 14.2652L193.11 12.8054H187.275L186.762 16.0094H188.301L188.225 16.5062C188.149 16.978 187.931 17.3955 187.57 17.7584C187.209 18.1214 186.857 18.3032 186.515 18.3032C186.084 18.3032 185.783 18.1229 185.612 17.7617C185.441 17.401 185.355 16.9227 185.355 16.3273C185.355 15.9726 185.393 15.5169 185.47 14.9594C185.495 14.7442 185.546 14.402 185.622 13.9336C185.786 12.8062 186.014 11.8941 186.306 11.1972C186.736 10.1968 187.3 9.69665 187.997 9.69665C188.238 9.69665 188.441 9.7852 188.605 9.96212C188.732 10.1013 188.834 10.2876 188.909 10.5211C188.986 10.7553 189.024 10.9227 189.024 11.0235C189.024 11.1249 189.017 11.2069 189.005 11.2701Z" fill="#999999"/>
<path d="M203.506 9.96205L204.076 6.26523H196.379L193.908 21.6965H201.586L202.175 17.9999H198.602L198.963 15.7059H202.175L202.746 12.0094H199.553L199.895 9.96205H203.506Z" fill="#999999"/>
<path d="M214.586 6.26523L213.997 9.96205H211.602L209.701 21.6965H205.482L207.383 9.96205L205.092 9.96055L205.71 6.26523H214.586Z" fill="#999999"/>
<path d="M229.619 9.96205L230.208 6.26523H221.332L220.714 9.96055L223.005 9.96205L221.104 21.6965H225.324L227.224 9.96205H229.619Z" fill="#999999"/>
<path fill-rule="evenodd" clip-rule="evenodd" d="M241.782 11.3396C241.643 12.1477 241.383 12.8545 241.003 13.4603C240.559 14.1802 239.964 14.7101 239.217 15.0508L238.779 15.2402L240.832 21.6966H236.347L235.758 19.1373C235.694 18.8216 235.542 18.0128 235.302 16.7107C235.251 16.3824 235.168 15.9335 235.054 15.3647C234.978 15.9335 234.921 16.3824 234.883 16.7107C234.769 17.5071 234.643 18.3222 234.503 19.1564C234.44 19.5861 234.345 20.1359 234.218 20.8055C234.18 21.0207 234.123 21.3175 234.047 21.6966H229.866L232.356 6.2653H236.423C238.412 6.2653 239.85 6.62516 240.737 7.34471C241.51 7.97588 241.897 8.89724 241.897 10.1088C241.897 10.4877 241.858 10.898 241.782 11.3396ZM237.658 11.3369C237.683 11.1611 237.696 11.035 237.696 10.9597C237.696 10.5194 237.566 10.1706 237.307 9.913C237.047 9.65505 236.727 9.52591 236.347 9.52591H235.986L235.377 13.3741H235.834C236.29 13.3741 236.695 13.1541 237.05 12.7142C237.367 12.3241 237.569 11.8653 237.658 11.3369Z" fill="#999999"/>
<path fill-rule="evenodd" clip-rule="evenodd" d="M249.575 21.6966H253.87L252.996 6.26515H247.902L241.782 21.6966H246.058L246.743 19.744H249.575V21.6966ZM247.788 16.5022L249.803 9.99972L249.575 16.5022H247.788Z" fill="#999999"/>
<path fill-rule="evenodd" clip-rule="evenodd" d="M267.573 14.0281C267.269 16.3133 266.477 18.1181 265.197 19.4434C263.753 20.9456 261.801 21.6966 259.343 21.6966H255.618L258.07 6.26528H261.814C263.791 6.26528 265.292 6.91533 266.318 8.21543C267.218 9.35181 267.668 10.8287 267.668 12.6462C267.668 13.0625 267.636 13.5236 267.573 14.0281ZM263.277 14.2264C263.353 13.7864 263.391 13.3148 263.391 12.8114C263.391 12.0193 263.284 11.4029 263.068 10.9625C262.789 10.4092 262.359 10.1325 261.776 10.1325H261.662L260.407 17.9999H260.541C261.275 17.9999 261.896 17.585 262.403 16.7546C262.821 16.0757 263.113 15.233 263.277 14.2264Z" fill="#999999"/>
<path d="M272.742 21.6965L275.27 6.26523H271.07L268.561 21.6965H272.742Z" fill="#999999"/>
<path d="M288.46 6.26523L286.008 21.6965H282.093C282.017 21.3932 281.96 21.1407 281.922 20.9382C281.605 19.523 281.402 18.5876 281.314 18.1325C281.123 17.1976 280.914 16.0412 280.686 14.6634C280.624 14.2705 280.545 13.7712 280.449 13.1662L280.382 12.7487C280.306 13.5197 280.249 14.1327 280.211 14.5876C280.084 15.8892 279.964 16.9384 279.85 17.7344C279.736 18.5308 279.596 19.4027 279.432 20.3507C279.381 20.6795 279.299 21.1279 279.185 21.6965H275.232L277.683 6.26523H281.637L282.53 10.5222L283.48 15.6304C283.543 14.8357 283.594 14.2052 283.632 13.7381C283.746 12.3636 283.854 11.2157 283.955 10.295C284.019 9.70243 284.126 8.83837 284.278 7.703C284.316 7.34999 284.38 6.87068 284.468 6.26523H288.46Z" fill="#999999"/>
<path d="M296.898 11.2701L301.136 9.77785L300.832 8.94636C300.49 7.97705 299.942 7.2438 299.188 6.74611C298.434 6.24876 297.512 6 296.423 6C294.37 6 292.685 6.83917 291.367 8.51834C290.214 9.98283 289.479 11.8698 289.163 14.1798C289.112 14.5208 289.077 14.8393 289.058 15.1361C289.039 15.433 289.03 15.7073 289.03 15.9594C289.03 17.7019 289.378 19.0902 290.075 20.1254C290.911 21.3752 292.21 22 293.971 22C295.935 22 297.518 21.2038 298.722 19.6111C299.736 18.2718 300.414 16.4899 300.756 14.2652L301.003 12.8054H295.168L294.655 16.0094H296.195L296.119 16.5062C296.043 16.978 295.824 17.3955 295.463 17.7584C295.102 18.1214 294.75 18.3032 294.408 18.3032C293.977 18.3032 293.677 18.1229 293.505 17.7617C293.334 17.401 293.249 16.9227 293.249 16.3273C293.249 15.9726 293.287 15.5169 293.363 14.9594C293.388 14.7442 293.439 14.402 293.515 13.9336C293.679 12.8062 293.908 11.8941 294.199 11.1972C294.63 10.1968 295.194 9.69665 295.891 9.69665C296.131 9.69665 296.334 9.7852 296.499 9.96212C296.625 10.1013 296.727 10.2876 296.803 10.5211C296.879 10.7553 296.917 10.9227 296.917 11.0235C296.917 11.1249 296.91 11.2069 296.898 11.2701Z" fill="#999999"/>
<defs>
<linearGradient id="paint0_linear" x1="18.5884" y1="-4.15218" x2="13.2105" y2="29.7709" gradientUnits="userSpaceOnUse">
<stop stop-color="#F26447"/>
<stop offset="1" stop-color="#EF4852"/>
</linearGradient>
<clipPath id="clip0">
<rect width="163.636" height="27" fill="white" transform="translate(0.5 0.5)"/>
</clipPath>
</defs>
</svg>

<svg width="302" height="28" fill="none" xmlns="http://www.w3.org/2000/svg"><g clip-path="url(#clip0)"><path d="M6.732.5l-.007.03 10.359 13.467L.507 27.465l-.007.029h16.746a10.494 10.494 0 0010.227-8.134l1.387-6.005A10.493 10.493 0 0018.633.5H6.732z" fill="url(#paint0_linear)"/><path d="M17.076 14.023l-7.28 13.47H.5l16.576-13.47z" fill="#CC2F3E"/><path fill-rule="evenodd" clip-rule="evenodd" d="M42.167.5h10.527c8.484 0 13.319 5.823 11.98 13.418l-.014.077c-1.34 7.597-8.241 13.497-16.725 13.497H37.407L42.167.5zm6.713 21.634a9.515 9.515 0 009.558-8.06l.013-.077c.843-4.783-1.843-8.138-6.702-8.138H47.16l-2.869 16.273 4.589.002z" fill="#fff"/><path d="M72.492.5h20.554l-.931 5.283H77.46l-.966 5.476h9.333l-.933 5.283h-9.331l-1 5.669h14.654l-.932 5.283H67.732L72.492.5zM119.465 9.485c-.768 4.36-3.603 7.096-7.26 8.368l4.895 9.64h-6.942l-6.461-13.883h4.475c2.891 0 4.822-1.542 5.223-3.817l.014-.078c.449-2.545-1.094-3.856-3.986-3.856h-5.901l-3.814 21.635H93.77L98.53.5h12.34c3.432 0 5.923.964 7.383 2.738 1.24 1.504 1.677 3.625 1.227 6.17l-.014.077zM126.518.5h5.939l-4.76 26.994h-5.939L126.518.5zM143.768.5h-6.509l6.075 26.994h5.207L164.136.5h-6.356l-10.335 18.877L143.768.5z" fill="#fff"/></g><path fill="#fff" d="M172.136.5h1v27h-1z"/><path d="M189.005 11.27l4.238-1.492-.304-.832c-.342-.969-.89-1.702-1.644-2.2-.754-.497-1.676-.746-2.766-.746-2.052 0-3.737.84-5.055 2.518-1.153 1.465-1.888 3.352-2.205 5.662-.051.34-.085.66-.104.956-.019.297-.029.571-.029.823 0 1.743.349 3.131 1.046 4.166.836 1.25 2.135 1.875 3.896 1.875 1.963 0 3.547-.796 4.751-2.389 1.014-1.34 1.692-3.121 2.034-5.346l.247-1.46h-5.835l-.513 3.204h1.539l-.076.497c-.076.472-.294.89-.655 1.252-.361.363-.713.545-1.055.545-.431 0-.732-.18-.903-.541-.171-.361-.257-.84-.257-1.435 0-.354.038-.81.115-1.368.025-.215.076-.557.152-1.025.164-1.128.392-2.04.684-2.737.43-1 .994-1.5 1.691-1.5.241 0 .444.088.608.265.127.14.229.326.304.56.077.233.115.4.115.502 0 .1-.007.183-.019.246zM203.506 9.962l.57-3.697h-7.697l-2.471 15.432h7.678l.589-3.697h-3.573l.361-2.294h3.212l.571-3.697h-3.193l.342-2.047h3.611zM214.586 6.265l-.589 3.697h-2.395l-1.901 11.735h-4.219l1.901-11.735-2.291-.001.618-3.696h8.876zM229.619 9.962l.589-3.697h-8.876l-.618 3.696 2.291.001-1.901 11.735h4.22l1.9-11.735h2.395z" fill="#999"/><path fill-rule="evenodd" clip-rule="evenodd" d="M241.782 11.34c-.139.808-.399 1.514-.779 2.12a4.024 4.024 0 01-1.786 1.59l-.438.19 2.053 6.457h-4.485l-.589-2.56c-.064-.315-.216-1.124-.456-2.426a33.351 33.351 0 00-.248-1.346 81.573 81.573 0 00-.171 1.346c-.114.796-.24 1.611-.38 2.445-.063.43-.158.98-.285 1.65-.038.215-.095.511-.171.89h-4.181l2.49-15.43h4.067c1.989 0 3.427.36 4.314 1.079.773.63 1.16 1.552 1.16 2.764 0 .379-.039.789-.115 1.23zm-4.124-.003c.025-.176.038-.302.038-.377 0-.44-.13-.79-.389-1.047a1.31 1.31 0 00-.96-.387h-.361l-.609 3.848h.457c.456 0 .861-.22 1.216-.66.317-.39.519-.849.608-1.377zM249.575 21.697h4.295l-.874-15.432h-5.094l-6.12 15.432h4.276l.685-1.953h2.832v1.953zm-1.787-5.195L249.803 10l-.228 6.502h-1.787zM267.573 14.028c-.304 2.285-1.096 4.09-2.376 5.415-1.444 1.503-3.396 2.254-5.854 2.254h-3.725l2.452-15.432h3.744c1.977 0 3.478.65 4.504 1.95.9 1.137 1.35 2.614 1.35 4.431 0 .416-.032.878-.095 1.382zm-4.296.198c.076-.44.114-.911.114-1.415 0-.792-.107-1.408-.323-1.848-.279-.554-.709-.83-1.292-.83h-.114L260.407 18h.134c.734 0 1.355-.415 1.862-1.245.418-.68.71-1.522.874-2.529z" fill="#999"/><path d="M272.742 21.697l2.528-15.432h-4.2l-2.509 15.431h4.181zM288.46 6.265l-2.452 15.432h-3.915a13.382 13.382 0 01-.171-.759c-.317-1.415-.52-2.35-.608-2.805-.191-.935-.4-2.092-.628-3.47l-.237-1.497-.067-.417c-.076.77-.133 1.384-.171 1.839a73.744 73.744 0 01-.361 3.146 91.74 91.74 0 01-.418 2.617c-.051.329-.133.777-.247 1.346h-3.953l2.451-15.432h3.954l.893 4.257.95 5.108.152-1.892c.114-1.374.222-2.522.323-3.443.064-.593.171-1.457.323-2.592.038-.353.102-.832.19-1.438h3.992zM296.898 11.27l4.238-1.492-.304-.832c-.342-.969-.89-1.702-1.644-2.2-.754-.497-1.676-.746-2.765-.746-2.053 0-3.738.84-5.056 2.518-1.153 1.465-1.888 3.352-2.204 5.662a11.422 11.422 0 00-.133 1.78c0 1.742.348 3.13 1.045 4.165.836 1.25 2.135 1.875 3.896 1.875 1.964 0 3.547-.796 4.751-2.389 1.014-1.34 1.692-3.121 2.034-5.346l.247-1.46h-5.835l-.513 3.204h1.54l-.076.497c-.076.472-.295.89-.656 1.252-.361.363-.713.545-1.055.545-.431 0-.731-.18-.903-.541-.171-.361-.256-.84-.256-1.435 0-.354.038-.81.114-1.368.025-.215.076-.557.152-1.025.164-1.128.393-2.04.684-2.737.431-1 .995-1.5 1.692-1.5a.8.8 0 01.608.265c.126.14.228.326.304.56.076.233.114.4.114.502 0 .1-.007.183-.019.246z" fill="#999"/><defs><linearGradient id="paint0_linear" x1="18.588" y1="-4.152" x2="13.21" y2="29.771" gradientUnits="userSpaceOnUse"><stop stop-color="#F26447"/><stop offset="1" stop-color="#EF4852"/></linearGradient><clipPath id="clip0"><path fill="#fff" transform="translate(.5 .5)" d="M0 0h163.636v27H0z"/></clipPath></defs></svg>
